X: 1
T: Gigue du Salon
C: Pascal Gemme (2013)
S: Portland Collection v.3
R: jig
Z: 2019 John Chambers <jc:trillian.mit.edu>
M: 6/8
L: 1/8
K: A
|:\
"A"EAB c2e | "D"d2e "A"cBA | "Bm"BcA B2A | BcA "E7"GFE |\
"A"EAB c2e | "D"d3  "A"cBA | "Bm"BcA BAF | "E7"EFG "A"A2 A :|
|:\
"A"e3 cBA | efe cBA | "Bm"BcA B2A | BcA "E7"GFE |\
"A"e3 cBA | efe cBA | "Bm"BcA BAF | "E7"EFG "A"A3 |]
|:\
"A"e3 cBA | efe cBA | "Bm"BcA B2A | BcA "E7"GFE |\
"A"EAB c2e | "D"d2e "A"cBA | "Bm"BcA BAF | "E7"EFG "A"A2 A :|
